X:593
T: Der Tausendknstler (291), S. 605
N: T0481
O: Luxemburg
S: Singendes Volk, Esch-Alzette 1937 posth.]
N: Mllertal, hhh "Stffelchen", 6.3.1916
R: ???]
M: 2/4
L: 1/8
K: G
DD | G2FE | D2DD | EEEE | D2DD | EEEE | D2
DD | G2G2 | A2A2 | B2cA | G2G2 | F2EF | G2z2
DDDD | EDD2 | z2
ED | DD2D | DDDD | EDD2 | z2
B_B | B_B=B2 | z2B_B | B_B=B2 | z2
_B2 | B2D2 | F2D2 | G2
BA | D2D2 | F2EF | G2

